resources/icon/file-empty.svg

<?xml version="1.0" encoding="utf-8"?>
<!-- Generated by IcoMoon.io -->
<!DOCTYPE svg PUBLIC "-//W3C//DTD SVG 1.1//EN" "http://www.w3.org/Graphics/SVG/1.1/DTD/svg11.dtd">
<svg version="1.1" xmlns="http://www.w3.org/2000/svg" xmlns:xlink="http://www.w3.org/1999/xlink" width="20" height="20" viewBox="0 0 20 20">
<path fill="#000000" d="M17.854 5.646l-4.5-4.5c-0.094-0.094-0.221-0.146-0.354-0.146h-9.5c-0.827 0-1.5 0.673-1.5 1.5v16c0 0.827 0.673 1.5 1.5 1.5h13c0.827 0 1.5-0.673 1.5-1.5v-12.5c0-0.133-0.053-0.26-0.146-0.354zM16.793 6h-3.293c-0.276 0-0.5-0.224-0.5-0.5v-3.293l3.793 3.793zM17 18.5c0 0.276-0.224 0.5-0.5 0.5h-13c-0.276 0-0.5-0.224-0.5-0.5v-16c0-0.276 0.224-0.5 0.5-0.5h8.5v3.5c0 0.827 0.673 1.5 1.5 1.5h3.5v11.5z"></path>
</svg>

<svg xmlns="http://www.w3.org/2000/svg" width="20" height="20"><path d="M17.854 5.646l-4.5-4.5A.5.5 0 0013 1H3.5C2.673 1 2 1.673 2 2.5v16c0 .827.673 1.5 1.5 1.5h13c.827 0 1.5-.673 1.5-1.5V6a.504.504 0 00-.146-.354zM16.793 6H13.5a.5.5 0 01-.5-.5V2.207L16.793 6zM17 18.5a.5.5 0 01-.5.5h-13a.5.5 0 01-.5-.5v-16a.5.5 0 01.5-.5H12v3.5c0 .827.673 1.5 1.5 1.5H17v11.5z"/></svg>
